**kern	**kern	**kern
*staff3	*staff2	*staff1
*tb8	*tb8	*tb8
=1-	=1-	=1-
*clefF4	*clefG2	*clefG2
*met(c)	*met(c)	*met(c)
*M4/4	*M4/4	*M4/4
1C/	8g\L	4ee\
.	8ee\	.
.	8f\	4dd\
.	8dd\J	.
.	8e/L	4cc\
.	8cc/	.
.	8d/	4b\
.	8b/J	.
=2	=2	=2
1C/	8e/L	4cc\
.	8cc/	.
.	8g/ 8b/	8b\
.	8f/J 8a/J	8a/
.	8e/L 8g/L	4g/
.	8c/	.
.	8f/ 8a/	4a/
.	8c/J	.
=3	=3	=3
4E\ 4G\	4g/ 4cc/	4cc\
4D\ 4G\	4f/ 4b/	4b\
4BB\ 4G\	4f/ 4dd/	4dd\
4C\ 4G\	4e/ 4cc/	4cc\
=4	=4	=4
!!linebreak:original
*	*^	*
2.GG/ 2.G/	4e/	2c\	(2ee\
.	4f#/	.	.
.	4g/	4B\	4dd\)
*	*v	*v	*
4r	4r	4r
=5	=5	=5
1DD/	8A/L	4ff\
.	8a/	.
.	8g/	4ee\
.	8a/J	.
.	8f/L	4dd\
.	8a/	.
.	8e/	4cc\
.	8cc/J	.
=6	=6	=6
2GG/	8d/L	(4cc\
.	8f/	.
.	8d/	2b\)
.	8b/J	.
4AA/	8c/L	.
.	8f/	.
4BB/	8d/ 8a/	8a/
.	8f/J 8g/J	8g/
=7:|!	=7:|!	=7:|!
!!linebreak:original
=	=	=
2C\ 2G\	2e/ 2g/	8g/
.	.	8f#/
.	.	8g/
.	.	8a/
4D\ 4G\	4d/	4.b\
4D\ 4F#\	4c/	.
.	.	8a/
=8	=8	=8
8GG\L	4B/	4g/
8D\	.	.
8G\	4r	4r
8B\J	.	.
4r	8d/L	4r
.	8g/	.
8d\L	8f/ 8b/	8b\
8c\J	8cc/J	8cc\
=9	=9	=9
*^	*	*
2B/	1G/	[2f/ [2dd/	(2dd\
4d/	.	4f/] 4b/	4b\)
4c/	.	8f/ 8cc/	8cc\L
.	.	8a/	8a\J
*v	*v	*	*
=10	=10	=10
!!linebreak:original
*^	*^	*
2B/	1G/	(2dd/]	[2f\ [2g\	1g/
4d/	.	4b/)	2f\] 2g\]	.
8c/L	.	8a/L	.	.
8B/J	.	8g/J	.	.
*v	*v	*	*	*
*	*v	*v	*
=11	=11	=11
1C/	8e/L 8g/L	(4.ee\
.	8G/	.
.	8c/ 8e/	.
.	8G/J	8cc\)
.	8e/L 8g/L	4g/
.	8G/	.
.	8c/ 8e/	4r
.	8G/J	.
=12	=12	=12
1C/	8g/L	(4.ee-\
.	8G/	.
.	8c/ 8e-/	.
.	8G/J	8cc\)
.	8g/L	2g/
.	8G/	.
.	8c/ 8e-/	.
.	8G/J	.
=13	=13	=13
*^	*^	*
4c/	2.G\	4ee-/	2g\	4ee-\
8f/L	.	8dd/L	.	8dd\L
8e-/J	.	8cc/J	.	8cc\J
*	*	*v	*v	*
4d/	.	4g/ 4b/	(4b\
4B/	4G\	4f/ 4g/	8cc\)
.	.	.	8dd\
*v	*v	*	*
=14	=14	=14
!!linebreak:original
*	*^	*
2C\ 2c\	2g/	2e-\	4cc\
.	.	.	4r
4FF/	8a-/L 8cc/L	2c\	8cc\
.	8a-/J 8cc/J	.	8cc\
4AA-/	8g/J 8b-/J	.	8b-\
.	8f/J 8a-/J	.	8a-/
=15	=15	=15	=15
2C/	4f/ 4a-/	2c\	4a-/
.	4e/ 4g/	.	4g/
4FF/	2a-/ 2cc/	4c\	4.cc\
4AA-/	.	4f\	.
.	.	.	8a-/
*	*v	*v	*
=16	=16	=16
2C/	4f/ 4a-/	4a-/
.	4e/ 4g/	4g/
4c\	4e/ 4g/	4g/
4B\	4d/ 4g/	4g/
=17	=17	=17
!!linebreak:original
4A\ 4c\	4e/ 4cc/	1cc'/
4G\ 4c\	4e/ 4b/	.
4F\ 4c\	4f/ 4a/	.
4E\ 4c\	4g/	.
=18	=18	=18
*^	*	*
1ryy	4D\ 4F\	4f/	8cc\L
.	.	.	8b\J
*v	*v	*	*
4r	4r	8ff\L
.	.	8ee\J
.	[2g/	8ee\L
.	.	8dd\J
.	.	8cc\L
.	.	8b\J
*^	*	*
4B/	2F\	=19	=19
.	.	4g/]	4cc\
4d/	.	.	.
.	.	2g/	4r
=19	=19	.	.
4c/	2E\	.	4r
2B-/	.	4f/	8cc/L
.	.	.	8f/J
.	4F\	=20	=20
!!linebreak:original
.	.	2c/ 2e/	(2e/
4F/	4AA\	.	.
*v	*v	*	*
=20	.	.
!!linebreak:original
*^	*	*
2G/	2GG\	4c\	4d/
.	.	4B\	8f/L
.	.	.	8e/J)
4A/	4FF\	=21	=21
.	.	1r	4c/
4F/	4GG\	.	.
.	.	.	4r
*v	*v	*	*
=21	.	.
*^	*	*
*	*^	*	*
2CC\	4E/ 4c/	1C/	.	2r
*	*v	*v	*	*
.	4E/ 4G/	.	.
2FF\	4F/ 4A/	=22	=22
.	.	1r	1r
.	8A/L 8c/L	.	.
.	8F/J 8A/J	.	.
=22	=22	.	.
2F/ 2A/	1CC/ 1C/	.	.
4E/ 4G/	.	==	==
*	*	*-	*-
4r	.
*v	*v
==
*-
